X:33
T:Maid I Ne'er Forgot, The
R:reel
Z:Transcribed by Dave Marshall
M:C|
K:Eminor
|: E3F ~G3A | B2 Ad dBAc | BGEF GAB^c | dBe^c dBAF |
E3F ~G3A | B2 Ad dBAc | BGEF GAB^c | dBAF GEE2 :|
|:B3d e3f | geaf gfed | BGEF GAB^c | dBAG FGAF |
~E2 BE dEcE | ~B2 Ad dBAc | BGEF GAB^c | dBAF GE E2:|
